packages/ui-icons/src/Service-logos/24/Deezer_direct_url.svg

<svg width="32" height="32" viewBox="0 0 32 32" fill="none" xmlns="http://www.w3.org/2000/svg">
<circle cx="16" cy="16" r="12" fill="white"/>
<path d="M16 27.5C22.3513 27.5 27.5 22.3513 27.5 16C27.5 9.64873 22.3513 4.5 16 4.5C9.64873 4.5 4.5 9.64873 4.5 16C4.5 22.3513 9.64873 27.5 16 27.5Z" stroke="#D8D8D8"/>
<path d="M22.4928 12.0506H19.5753V13.7576H22.4928V12.0506Z" fill="#40AB5D"/>
<path d="M22.4928 14.4173H19.5753V16.1243H22.4928V14.4173Z" fill="url(#paint0_linear_918_104)"/>
<path d="M22.4928 16.784H19.5753V18.491H22.4928V16.784Z" fill="url(#paint1_linear_918_104)"/>
<path d="M11.9176 19.1506H9V20.8576H11.9176V19.1506Z" fill="url(#paint2_linear_918_104)"/>
<path d="M15.4404 19.1506H12.5229V20.8576H15.4404V19.1506Z" fill="url(#paint3_linear_918_104)"/>
<path d="M18.97 19.1506H16.0525V20.8576H18.97V19.1506Z" fill="url(#paint4_linear_918_104)"/>
<path d="M22.4928 19.1506H19.5753V20.8576H22.4928V19.1506Z" fill="url(#paint5_linear_918_104)"/>
<path d="M18.97 16.784H16.0525V18.491H18.97V16.784Z" fill="url(#paint6_linear_918_104)"/>
<path d="M15.4404 16.784H12.5229V18.491H15.4404V16.784Z" fill="url(#paint7_linear_918_104)"/>
<path d="M15.4404 14.4173H12.5229V16.1243H15.4404V14.4173Z" fill="url(#paint8_linear_918_104)"/>
<defs>
<linearGradient id="paint0_linear_918_104" x1="21.0483" y1="15.568" x2="21.0389" y2="14.9697" gradientUnits="userSpaceOnUse">
<stop stop-color="#358C7B"/>
<stop offset="0.5256" stop-color="#33A65E"/>
</linearGradient>
<linearGradient id="paint1_linear_918_104" x1="19.5324" y1="17.8996" x2="22.1297" y2="16.5762" gradientUnits="userSpaceOnUse">
<stop stop-color="#222B90"/>
<stop offset="1" stop-color="#367B99"/>
</linearGradient>
<linearGradient id="paint2_linear_918_104" x1="9.00053" y1="20.0048" x2="11.9157" y2="20.0048" gradientUnits="userSpaceOnUse">
<stop stop-color="#FF9900"/>
<stop offset="1" stop-color="#FF8000"/>
</linearGradient>
<linearGradient id="paint3_linear_918_104" x1="12.5261" y1="20.0048" x2="15.4412" y2="20.0048" gradientUnits="userSpaceOnUse">
<stop stop-color="#FF8000"/>
<stop offset="1" stop-color="#CC1953"/>
</linearGradient>
<linearGradient id="paint4_linear_918_104" x1="16.0516" y1="20.0048" x2="18.9668" y2="20.0048" gradientUnits="userSpaceOnUse">
<stop stop-color="#CC1953"/>
<stop offset="1" stop-color="#241284"/>
</linearGradient>
<linearGradient id="paint5_linear_918_104" x1="19.5737" y1="20.0048" x2="22.4888" y2="20.0048" gradientUnits="userSpaceOnUse">
<stop stop-color="#222B90"/>
<stop offset="1" stop-color="#3559A6"/>
</linearGradient>
<linearGradient id="paint6_linear_918_104" x1="15.9366" y1="17.795" x2="18.9189" y2="16.9229" gradientUnits="userSpaceOnUse">
<stop stop-color="#CC1953"/>
<stop offset="1" stop-color="#241284"/>
</linearGradient>
<linearGradient id="paint7_linear_918_104" x1="12.4224" y1="17.4431" x2="15.3048" y2="18.4922" gradientUnits="userSpaceOnUse">
<stop offset="0.00266984" stop-color="#FFCC00"/>
<stop offset="0.9999" stop-color="#CE1938"/>
</linearGradient>
<linearGradient id="paint8_linear_918_104" x1="12.7711" y1="14.8878" x2="14.4627" y2="16.4487" gradientUnits="userSpaceOnUse">
<stop offset="0.00266984" stop-color="#FFD100"/>
<stop offset="1" stop-color="#FD5A22"/>
</linearGradient>
</defs>
</svg>

<svg width="32" height="32" fill="none" xmlns="http://www.w3.org/2000/svg"><circle cx="16" cy="16" r="12" fill="#fff"/><path d="M16 27.5c6.351 0 11.5-5.149 11.5-11.5S22.351 4.5 16 4.5 4.5 9.649 4.5 16 9.649 27.5 16 27.5Z" stroke="#D8D8D8"/><path d="M22.493 12.05h-2.918v1.708h2.918V12.05Z" fill="#40AB5D"/><path d="M22.493 14.417h-2.918v1.707h2.918v-1.707Z" fill="url(#a)"/><path d="M22.493 16.784h-2.918v1.707h2.918v-1.707Z" fill="url(#b)"/><path d="M11.918 19.15H9v1.708h2.918V19.15Z" fill="url(#c)"/><path d="M15.44 19.15h-2.917v1.708h2.917V19.15Z" fill="url(#d)"/><path d="M18.97 19.15h-2.918v1.708h2.918V19.15Z" fill="url(#e)"/><path d="M22.493 19.15h-2.918v1.708h2.918V19.15Z" fill="url(#f)"/><path d="M18.97 16.784h-2.918v1.707h2.918v-1.707Z" fill="url(#g)"/><path d="M15.44 16.784h-2.917v1.707h2.917v-1.707Z" fill="url(#h)"/><path d="M15.44 14.417h-2.917v1.707h2.917v-1.707Z" fill="url(#i)"/><defs><linearGradient id="a" x1="21.048" y1="15.568" x2="21.039" y2="14.97" gradientUnits="userSpaceOnUse"><stop stop-color="#358C7B"/><stop offset=".526" stop-color="#33A65E"/></linearGradient><linearGradient id="b" x1="19.532" y1="17.9" x2="22.13" y2="16.576" gradientUnits="userSpaceOnUse"><stop stop-color="#222B90"/><stop offset="1" stop-color="#367B99"/></linearGradient><linearGradient id="c" x1="9.001" y1="20.005" x2="11.916" y2="20.005" gradientUnits="userSpaceOnUse"><stop stop-color="#F90"/><stop offset="1" stop-color="#FF8000"/></linearGradient><linearGradient id="d" x1="12.526" y1="20.005" x2="15.441" y2="20.005" gradientUnits="userSpaceOnUse"><stop stop-color="#FF8000"/><stop offset="1" stop-color="#CC1953"/></linearGradient><linearGradient id="e" x1="16.052" y1="20.005" x2="18.967" y2="20.005" gradientUnits="userSpaceOnUse"><stop stop-color="#CC1953"/><stop offset="1" stop-color="#241284"/></linearGradient><linearGradient id="f" x1="19.574" y1="20.005" x2="22.489" y2="20.005" gradientUnits="userSpaceOnUse"><stop stop-color="#222B90"/><stop offset="1" stop-color="#3559A6"/></linearGradient><linearGradient id="g" x1="15.937" y1="17.795" x2="18.919" y2="16.923" gradientUnits="userSpaceOnUse"><stop stop-color="#CC1953"/><stop offset="1" stop-color="#241284"/></linearGradient><linearGradient id="h" x1="12.422" y1="17.443" x2="15.305" y2="18.492" gradientUnits="userSpaceOnUse"><stop offset=".003" stop-color="#FC0"/><stop offset="1" stop-color="#CE1938"/></linearGradient><linearGradient id="i" x1="12.771" y1="14.888" x2="14.463" y2="16.449" gradientUnits="userSpaceOnUse"><stop offset=".003" stop-color="#FFD100"/><stop offset="1" stop-color="#FD5A22"/></linearGradient></defs></svg>
